X: 6863
T: Charlie O'Neill's
R: strathspey
M: 4/4
K: Amajor
|:A2 A>G A>Bc>A|B2 B>A B>dc>B|A2 A>G A>Bc>e|1 f<ae>d c>AB>G:|2 f<ae>d c>AA>B||
c>Ae>A f>Ae>c|B2 B>A F<BB>d|c>Ae>A f>Ae>f|a>fe>d c>AA>B|
c>Ae>A f>Ae>c|B2 B>A F<BB>d|c2 (3cBA d2 d>f|a>fe>d c>AB>G||

